X:631
T:Galway Reel, The
R:reel
C:Larry Redican (1908-1975)
S:Kevin Finucane
Z:id:hn-reel-631
M:C|
K:G
B|:AGEG DG,B,D|BAGA BedB|AGED B,DA,D|B,A,~A,2 B,EED|
E2DF GEDB,|D2B,E DG,B,D|EDEG DEGA|1 BdAF ~G3B:|2 BdAF GABc||
|:dG~G2 EGDC|B,G,B,D GBdg|ecBc AGFA|DFAd fed^c|
dG~G2 EGD=C|B,G,B,D GBdg|ec~c2 efge|1 dBcA GABc:|2 dBcA ~G3||
